X:1
T:The God Who Answers by Fire
T:The God Who Answers by Fire
T:Lelia Naylor Morris
T:Lelia Naylor Morris, 1903
T:Public Domain Courtesy of the Cyber Hymnal™
T:Public Domain Courtesy of the Cyber Hymnal™
C:Lelia Naylor Morris
Z:Public Domain
Z:Courtesy of the Cyber Hymnal™
%%score ( 1 2 ) ( 3 4 )
L:1/8
Q:1/4=85
M:3/4
K:Eb
V:1 treble 
V:2 treble 
V:3 bass 
V:4 bass 
V:1
 [EB][E=A] [EB] | [EG]3 [EA] [DF][DG] | [B,E]3 [Ge] [Bd][Ac] | [GB][EG] [FA]2 [EG]2 | %4
w: 1.~Two al- tars|on a hill- side|made, Two off- erings|on the al- tar|
w: 2.~But now the|faith- ful pro- phet,|see, Up- on his|God calls might- i-|
w: 3.~Up- on God’s|al- tars still we|lay, Our hum- ble|off- erings day by|
w: 4.~As- cribe to|God for- ev- er-|more Thanks- giv- ing,|hon- or, love and|
 [DF]3 E [EG][GB] | [Ge]3 [Ed] [Ed]>[Ec] | [Ec]3 [Ac] [=Ac][Ac] | [Fd]3 [Ge] [Bd][=Ac] | %8
w: laid; Let Him be|God, who hears our|cry, And send- eth|fire down from on|
w: ly: “A- mong the|peo- ple be it|known, That Thou art|God, and Thou a-|
w: day; Un- wor- thy|tho’ the sa- cri-|fice, The gift of|love He sanc- ti-|
w: power; To God the|Fa- ther, God the|Son, And God the|Spir- it, three in|
 [FB]3 [GB] [FB][AB] | [GB]3 [EG] [_DG][DG] | [CA]3 [Ec] [EB]>[EB] | [EB][EG] [EB]2 [DB]2 | %12
w: high. From morn- ing|light till close of|day, Hear Ba- al’s|pro- phets loud- ly|
w: lone.” And ev- en|while E- li- jah|calls, Be- hold, the|fire from Heav- en|
w: fies, He heeds the|heart’s sin- cere de-|sire, And sends the|Ho- ly Ghost and|
w: One. In songs of|praise as- cend- ing|higher, To Him who|an- swers still by|
 [EB]3 ||"^Refrain" ([EG]/[FA]/) | [GB]2 [GB][^F=A]>[GB][_Ac] | [GB]3- [GB]2 [EB] | %16
w: pray.||||
w: falls.||||
w: fire.|The *|God who an- swers by|fire, * The|
w: fire.||||
 [Ec]2 [Ec][Ec]>[Ed][Ee] | [GB]3- [GB]2 (B/c/) | (z2 [GB]2) x2 | (z2 [GB]2) (B/c/) x | %20
w: ||||
w: ||||
w: God who an- swers by|fire, * Let *||* Him, *|
w: ||||
 [Fd]3 [Fc]3 | [Ff]3- [Ff]2 ([EG]/[FA]/) | [GB]2 [GB][^F=A]>[GB][Ac] | [GB]3- [GB]2 [EB] | %24
w: ||||
w: ||||
w: let Him,|let * Him *|be God. The God who|an- * swers|
w: ||||
 [Ec]2 [Ec][Ec]>[Ed][Ee] | [GB]3- [GB]2 (G/A/) | (z2 [GB]2) B x | z2 [Ac]2 [^Fc] x | [GB]3 [Ad]3 | %29
w: |||||
w: |||||
w: by fire, The God who|an- * swers *|* by|* fire|* Let|
w: |||||
 [Ge]3- [Ge]2 |] %30
w: |
w: |
w: Him, *|
w: |
V:2
 x3 | x6 | x6 | x6 | x3 E x2 | x6 | x6 | x6 | x6 | x6 | x6 | x6 | x3 || x | x6 | x6 | x6 | x6 | %18
 (B3- F B/c/) x | B3- (F _G) x | x6 | x6 | x6 | x6 | x6 | x6 | B3- G x2 | c3- A x2 | x6 | x5 |] %30
V:3
 [E,G,][E,^F,] [E,G,] | [E,B,]3 [E,C] [E,A,][E,B,] | [E,G,]3 [E,B,] [E,B,] (C/D/) | %3
 [E,E][E,B,] [D,B,]2 [E,B,]2 | [B,,B,]3 [E,G,] [E,B,][E,E] | [E,B,]3 [G,B,] [G,B,]>A, | %6
 A,3 [A,E] [F,F][F,F] | B,3 [E,B,] [F,F][F,E] | [B,,D]3 [B,E] [B,D][B,F] | %9
 [E,E]3 [E,B,] [E,B,][E,B,] | [A,,A,]3 [A,,A,] [B,,G,]>[B,,G,] | [B,,G,][B,,B,] [B,,G,]2 (F,A,) | %12
 [E,G,]3 || [E,B,] | [E,E]2 [E,E][E,E]>[E,E][E,E] | E3 [E,B,]2 [E,G,] | A,2 A,A,>[A,B,][A,C] | %17
 E3 [E,E]2 z | z2 ([B,,D] [E,E]2) z | z2 ([B,,D] [E,E]2) [E,B,] | [F,B,]2 [F,B,] [F,=A,]2 [CE] | %21
 ([B,D]3/2 [CE]/ [B,D] B,2) [F,B,] | [E,E]2 [E,E][E,E]>[E,E][E,E] | E3 [E,A,]2 [E,G,] | %24
 A,2 A,A,>[A,B,][A,C] | E3 [E,E]2 z | z2 ([E,E] [E,E]2) z | z2 ([F,E] [A,E]2) [=A,E] | %28
 [B,E]2 [B,E] [B,,B,]2 [B,,B,] | [E,B,]3- [E,B,]2 |] %30
V:4
 x3 | x6 | x5 E, | x6 | x6 | x11/2 A,/ | A,3 x3 | B,3 x3 | x6 | x6 | x6 | x4 B,,2 | x3 || x | x6 | %15
 E,2 B,, x3 | A,2 A,A,3/2 x3/2 | E,2 B,, x3 | x6 | x6 | x6 | x3 (A, G,) x | x6 | E,2 B,, x3 | %24
 A,2 A,A,3/2 x3/2 | E,2 B,, x3 | x6 | x6 | x6 | x5 |] %30

